assets/icons/qvision/style.svg

<svg width="24" height="24" viewBox="0 0 24 24" fill="none" xmlns="http://www.w3.org/2000/svg">
<g clip-path="url(#clip0_147_3725)">
<path d="M2.5301 19.65L3.8701 20.21V11.18L1.4401 17.04C1.0301 18.06 1.5201 19.23 2.5301 19.65ZM22.0301 15.95L17.0701 3.98C16.7601 3.23 16.0301 2.77 15.2601 2.75C15.0001 2.75 14.7301 2.79 14.4701 2.9L7.1001 5.95C6.3501 6.26 5.8901 6.98 5.8701 7.75C5.8601 8.02 5.9101 8.29 6.0201 8.55L10.9801 20.52C11.2901 21.28 12.0301 21.74 12.8101 21.75C13.0701 21.75 13.3301 21.7 13.5801 21.6L20.9401 18.55C21.9601 18.13 22.4501 16.96 22.0301 15.95ZM7.8801 8.75C7.3301 8.75 6.8801 8.3 6.8801 7.75C6.8801 7.2 7.3301 6.75 7.8801 6.75C8.4301 6.75 8.8801 7.2 8.8801 7.75C8.8801 8.3 8.4301 8.75 7.8801 8.75ZM5.8801 19.75C5.8801 20.85 6.7801 21.75 7.8801 21.75H9.3301L5.8801 13.41V19.75Z" fill="#323232"/>
</g>
<defs>
<clipPath id="clip0_147_3725">
<rect width="24" height="24" fill="white"/>
</clipPath>
</defs>
</svg>

<svg xmlns="http://www.w3.org/2000/svg" height="24" viewBox="0 0 24 24" width="24"><path d="M0 0h24v24H0z" fill="none"/><path d="M2.53 19.65l1.34.56v-9.03l-2.43 5.86c-.41 1.02.08 2.19 1.09 2.61zm19.5-3.7L17.07 3.98c-.31-.75-1.04-1.21-1.81-1.23-.26 0-.53.04-.79.15L7.1 5.95c-.75.31-1.21 1.03-1.23 1.8-.01.27.04.54.15.8l4.96 11.97c.31.76 1.05 1.22 1.83 1.23.26 0 .52-.05.77-.15l7.36-3.05c1.02-.42 1.51-1.59 1.09-2.6zM7.88 8.75c-.55 0-1-.45-1-1s.45-1 1-1 1 .45 1 1-.45 1-1 1zm-2 11c0 1.1.9 2 2 2h1.45l-3.45-8.34v6.34z"/></svg>
